X:1
T:The Poacher's Fate
M:6/8
L:1/4
K:B
 F/2| D D/2 F F/2| D D/2 D D/2| C C/2 C E/2| D D/2 B, B,/2| D D/2 D D/2|\
 E E/2 G G/2| F F/2 E C/2| B,3/2 z F/2| D D/2 F F/2| D D/2 D D/2| C C/2 C E/2|\
 D D/2 B, B,/2| D D/2 D D/2| E E/2 G G/2| F F/2 E C/2| B,3/2 z D/2|\
 F3/2 G3/2| F3/2 D E/2| F3/2 G3/2| F3/2 z E/2| D D/2 F F/2| D D/2 D D/2|\
 C C/2 C E/2| F F/2 B, B,/2| D D/2 D D/2| E E/2 G G/2| F/2F/2 E/2- E C/2|\
 B,3/2 z||
